X:65
T:Joc de fetes la SŒnziene
O:rumania
C:Roemeni‰
C:Viseu, Maramures
M:5/8
L:1/8
Q:1/4=120
K:Gm
V:1
"Gm" D2 D3 |d2 d3 |"Cm" (c3 c/)B/A/B/ |c4 d|
"D" e2 d3 |"D7" c4 B|"Gm" A G4 |(G2 G3)
|:"Gm" D2 D3 |G2 G3 |A2 B3 |(A4 G)|
"A" G4 ^F|A2 G3 |"D" (D2 (D3) |(D2) "D7" D3) |
"Gm" D2 D3 |d2 d3 |"Cm" (c3 c/)B/A/B/ |(c4 d)|
"D" e2 d3 |"D7" c4 B|"Gm" A G4 |(G2 G3) :|
V:2          %Akkoorden2
z2 z2 z2 z2 |z2 z2 z2 z2 |z2 z2 z2 z2 |z2 z2 z2 z2 |
z2 z2 z2 z2 |z2 z2 z2 z2 :|z2 z2 z2 z2 |][G,B, D,]z [G,2B,2 D,2]z|
[G,B,D,]z[G,2B,2 D,2]z|[C,E,G,]z[C,2E,2 G,2]z|[C,E,G,]z[C,2E,2 G,2]z|[D,^F,A,]z[D,2^F,2 A,2]z|
[D,^F,A, C,]z [D,2^F,2 A,2 C,2]z|[G,B,D,]z[G,2B,2 D,2]z|[G,B,D,]z[G,2B,2 D,2]z |:[G,B,D,]z[G,2B,2 D,2]z|
[G,B,D,]z[G,2B,2 D,2]z|[G,B,D,]z[G,2B,2 D,2]z|[G,B,D,]z[G,2B,2 D,2]z|[A,^C,=E,]z[A,2^C,2 =E,2]z|
[A,^C,=E,]z[A,2^C,2 =E,2]z|[D,^F,A,]z[D,2^F,2 A,2]z|[D,^F,A,]z[D,2^F,2 A,2 C,2]z|[G,B,D,]z[G,2B,2 D,2]z|
[G,B,D,]z[G,2B,2 D,2]z|[C,E,G,]z[C,2E,2 G,2]z|[C,E,G,]z[C,2E,2 G,2]z|[D,^F,A,]z[D,2^F,2 A,2]z|
[D,^F,A, C,]z [D,2^F,2 A,2 C,2]z|[G,B,D,]z[G,2B,2 D,2]z|[G,B,D,]z[G,2B,2 D,2]z:|





